static/icons/ToriShogi.svg

<svg height="50" viewBox="0 0 13.229166 13.229167" width="50" xmlns="http://www.w3.org/2000/svg"><path d="m25 1.7617188-15.7265625 5.4960937-4.3085937 40.9804685h40.0703122l-4.308594-40.9804685zm-7.677734 12.3359372c1.003439.010497 2.000757.388266 2.841796.972656 4.038006 2.805771 3.427553 7.293677 5.658204 9.636719.931649-2.155162 16.040439-.341639 15.439453 1.027344-1.921728.304932-12.217026 3.155728-9.792969 8.328125 1.436621 3.329877 9.050021 7.499487 8.355469 7.787109-.592528.245443-.795169.835669-5.341797-1.921875-6.658534-2.122015-10.228542 1.765338-16.28711-1.755859-1.953127-1.056151-2.81008-2.929538-3.75-4.740234-1.622955-4.46041-2.019689-8.921168-2.326171-13.38086-.847745-.562847-1.29067-1.375491-3.1523441-1.308593.9143206-.676271 1.9179171-1.27405 3.3320311-1.513672 0 0 2.400187-2.598605 4.023438-3.013672.330728-.084539.66552-.120687 1-.117188z" fill="#8d6c46" transform="scale(.26458333)"/></svg>

<?xml version="1.0" encoding="UTF-8" standalone="no"?>
<svg
   xmlns:dc="http://purl.org/dc/elements/1.1/"
   xmlns:cc="http://creativecommons.org/ns#"
   xmlns:rdf="http://www.w3.org/1999/02/22-rdf-syntax-ns#"
   xmlns:svg="http://www.w3.org/2000/svg"
   xmlns="http://www.w3.org/2000/svg"
   xmlns:sodipodi="http://sodipodi.sourceforge.net/DTD/sodipodi-0.dtd"
   xmlns:inkscape="http://www.inkscape.org/namespaces/inkscape"
   width="50"
   height="50"
   viewBox="0 0 13.229166 13.229167"
   version="1.1"
   id="svg1579"
   inkscape:version="1.0.1 (3bc2e813f5, 2020-09-07)"
   sodipodi:docname="ToriShogi.svg">
  <defs
     id="defs1573">
    <inkscape:path-effect
       effect="mirror_symmetry"
       start_point="-15.691712,-45.362002"
       end_point="-15.691712,4.437998"
       center_point="-15.691712,-20.462002"
       id="path-effect7365"
       is_visible="true"
       mode="free"
       discard_orig_path="false"
       fuse_paths="true"
       oposite_fuse="false" />
  </defs>
  <sodipodi:namedview
     id="base"
     pagecolor="#ffffff"
     bordercolor="#666666"
     borderopacity="1.0"
     inkscape:pageopacity="0.0"
     inkscape:pageshadow="2"
     inkscape:zoom="5.6"
     inkscape:cx="190.53289"
     inkscape:cy="21.723265"
     inkscape:document-units="px"
     inkscape:current-layer="layer1"
     showgrid="false"
     units="px"
     showguides="true"
     inkscape:window-width="3840"
     inkscape:window-height="2050"
     inkscape:window-x="-12"
     inkscape:window-y="-12"
     inkscape:window-maximized="1"
     inkscape:document-rotation="0" />
  <metadata
     id="metadata1576">
    <rdf:RDF>
      <cc:Work
         rdf:about="">
        <dc:format>image/svg+xml</dc:format>
        <dc:type
           rdf:resource="http://purl.org/dc/dcmitype/StillImage" />
        <dc:title></dc:title>
      </cc:Work>
    </rdf:RDF>
  </metadata>
  <g
     inkscape:label="Layer 1"
     inkscape:groupmode="layer"
     id="layer1"
     transform="translate(0,-283.77082)">
    <path
       id="path3112"
       style="fill:#8d6c46;fill-opacity:1;fill-rule:nonzero;stroke:none;stroke-width:0.934067;stroke-opacity:0.487437"
       d="M 25 1.7617188 L 9.2734375 7.2578125 L 4.9648438 48.238281 L 45.035156 48.238281 L 40.726562 7.2578125 L 25 1.7617188 z M 17.322266 14.097656 C 18.325705 14.108153 19.323023 14.485922 20.164062 15.070312 C 24.202068 17.876083 23.591615 22.363989 25.822266 24.707031 C 26.753915 22.551869 41.862705 24.365392 41.261719 25.734375 C 39.339991 26.039307 29.044693 28.890103 31.46875 34.0625 C 32.905371 37.392377 40.518771 41.561987 39.824219 41.849609 C 39.231691 42.095052 39.02905 42.685278 34.482422 39.927734 C 27.823888 37.805719 24.25388 41.693072 18.195312 38.171875 C 16.242185 37.115724 15.385232 35.242337 14.445312 33.431641 C 12.822357 28.971231 12.425623 24.510473 12.119141 20.050781 C 11.271396 19.487934 10.828471 18.67529 8.9667969 18.742188 C 9.8811175 18.065917 10.884714 17.468138 12.298828 17.228516 C 12.298828 17.228516 14.699015 14.629911 16.322266 14.214844 C 16.652994 14.130305 16.987786 14.094157 17.322266 14.097656 z "
       transform="matrix(0.26458333,0,0,0.26458333,0,283.77082)" />
  </g>
</svg>
